!!!!SEGMENT: pl-sa--231-a-vi-35--005_anonim--litania-mater-amabilis.krn
!!!cenid: 17xx:1400
!!!COM: Anonim
!!!COM-rismID: pe30004985
!!!CDT:
!!!CNT:
!!!OPR: Litania
!!!OTL: Mater amabilis
!!!OMV: 005
!!!PDT:
!!!AGN: Sacred; Mass
!!!SMS-siglum: PL-SA
!!!SMS-shelfmark: 231/A VI 35
!!!SMS-shelfwork: 001-005 M
!!!SMS-variant:
!!!SMS-altvar:
!!!NIFC-rismSourceID: 1001039070
!!!NIFC-islandoraID:
!!!URL-pdf-islandora:
!!!URL-scan: https://bc.bdsandomierz.pl/dlibra/publication/1585/edition/1553/content @EN{Scan in the Sandomierz Diocese Digital Library} @PL{Skany w portalu Cyfrowa Biblioteka Diecezjalna w Sandomierzu}
!!!ONB-nifc: UWAGA: części Litanii: 1. Sinfonia, 2. Kyrie, 3. Pater de caelis, 4. Sancta Maria, 5. Mater amabilis, 6. Speculum iustitiae, 7. Rosa mystica, 8. Salus infirmorum, 9. Regina angelorum, 10. Agnus Dei. Uwaga: wpisać oba teksty.
!!!AIN: 1 bass 2 cor 1 oboe 1 organ 1 soprn 1 tenor 2 violn
!!!key: D
**kern	**dynam	**kern	**dynam	**kern	**dynam	**kern	**kern	**text	**text	**kern	**kern	**kern	**kern
*part9	*part9	*part8	*part8	*part7	*part7	*part6	*part5	*part5	*part5	*part4	*part3	*part2	*part1
*staff9	*	*staff8	*	*staff7	*	*staff6	*staff5	*staff5	*staff5	*staff4	*staff3	*staff2	*staff1
*I"Fondamento.	*	*I"Violino Secundo.	*	*I"Violino Primo	*	*I"Basso	*I"Tenore	*	*	*I"Canto.	*I"Cornu Secundo ex G.	*I"Cornu Primo ex G..	*I"Oboe Primo
*I'bc	*	*I'vl II	*	*I'vl I	*	*I'B	*I'T	*	*	*I'S	*I'cor II	*I'cor I	*I'ob I
*ICklav	*	*ICstr	*	*ICstr	*	*ICvox	*ICvox	*	*	*ICvox	*ICbras	*ICbras	*ICww
*Iorgan	*	*Ivioln	*	*Ivioln	*	*Ibass	*Itenor	*	*	*Isoprn	*Icor	*Icor	*Ioboe
*clefF4	*	*clefG2	*	*clefG2	*	*clefF4	*clefC4	*	*	*clefC1	*clefG2	*clefG2	*clefG2
*D:	*	*D:	*	*D:	*	*D:	*D:	*	*	*D:	*D:	*D:	*D:
*	*	*	*	*	*	*	*	*	*	*	*ITrd3c5	*ITrd3c5	*
*k[f#c#]	*	*k[f#c#]	*	*k[f#c#]	*	*k[f#c#]	*k[f#c#]	*	*	*k[f#c#]	*k[f#c#]	*k[f#c#]	*k[f#c#]
*M2/4	*	*M2/4	*	*M2/4	*	*M2/4	*M2/4	*	*	*M2/4	*M2/4	*M2/4	*M2/4
=1	=1	=1	=1	=1	=1	=1	=1	=1	=1	=1	=1	=1	=1
!LO:TX:a:B:t=All(egr)o&colon;	!	!	!	!	!	!	!	!	!	!	!	!	!LO:TX:a:t=Solo.
!LO:TX:a:t=Solo	!	!LO:TX:a:B:t=All(egr)o&colon;	!	!LO:TX:a:B:t=All(egr)o&colon;	!	!LO:TX:a:t=Tacet.	!LO:TX:a:B:t=Allo&colon;	!	!	!LO:TX:a:t=Tacet	!LO:TX:a:t=Tacet	!LO:TX:a:t=Tacet	!LO:TX:a:B:t=All(egr)o&colon;
8D\L	.	4aa\	.	4aa\	.	2ryy	2r	.	.	2ryy	2ryy	2ryy	4aa\
8F#\	.	.	.	.	.	.	.	.	.	.	.	.	.
8B\	.	(16gg\LL	.	(16gg\LL	.	.	.	.	.	.	.	.	(16gg\LL
.	.	16ff#\)	.	16ff#\)	.	.	.	.	.	.	.	.	16ff#\)
8G\J	.	(16ee\	.	(16ee\	.	.	.	.	.	.	.	.	(16ee\
.	.	16dd\JJ)	.	16dd\JJ)	.	.	.	.	.	.	.	.	16dd\JJ)
=2	=2	=2	=2	=2	=2	=2	=2	=2	=2	=2	=2	=2	=2
.	.	8qqdd/	.	8qqdd/	.	.	.	.	.	.	.	.	8qqdd/
8A\L	.	4cc#\	.	4cc#\	.	2ryy	2r	.	.	2ryy	2ryy	2ryy	4cc#\
8G\	.	.	.	.	.	.	.	.	.	.	.	.	.
.	.	8qqcc#/	.	8qqcc#/	.	.	.	.	.	.	.	.	8qqcc#/
8F#\	.	4dd\	.	4dd\	.	.	.	.	.	.	.	.	4dd\
8D\J	.	.	.	.	.	.	.	.	.	.	.	.	.
=3	=3	=3	=3	=3	=3	=3	=3	=3	=3	=3	=3	=3	=3
!	!	!	!	!	!	!	!	!	!	!	!	!	!
8G\L	.	8.b\L	.	8.b\L	.	2ryy	2r	.	.	2ryy	2ryy	2ryy	8.b\L
8E\	.	.	.	.	.	.	.	.	.	.	.	.	.
.	.	(32cc#\LL	.	(32cc#\LL	.	.	.	.	.	.	.	.	(32cc#\LL
.	.	32dd\JJJ)	.	32dd\JJJ)	.	.	.	.	.	.	.	.	32dd\JJJ)
8A\	.	8a/L	.	8a/L	.	.	.	.	.	.	.	.	8a/L
8AA/J	.	8g/J	.	8g/J	.	.	.	.	.	.	.	.	8g/J
=4	=4	=4	=4	=4	=4	=4	=4	=4	=4	=4	=4	=4	=4
8AA/L	.	8gT/L	.	8gT/L	.	2ryy	2r	.	.	2ryy	2ryy	2ryy	8gT/L
8D/	.	8f#/J	.	8f#/J	.	.	.	.	.	.	.	.	8f#/J
8F#/	.	4r	.	4r	.	.	.	.	.	.	.	.	4r
8E/J	.	.	.	.	.	.	.	.	.	.	.	.	.
=5	=5	=5	=5	=5	=5	=5	=5	=5	=5	=5	=5	=5	=5
8D\L	.	8.ff#\L	.	8.ff#\L	.	2ryy	2r	.	.	2ryy	2ryy	2ryy	8.ff#\L
8D\	.	.	.	.	.	.	.	.	.	.	.	.	.
.	.	16a#X\Jk	.	16a#X\Jk	.	.	.	.	.	.	.	.	16a#X\Jk
.	.	8qqa#/	.	8qqa#/	.	.	.	.	.	.	.	.	8qqa#/
8D\	.	4b\	.	4b\	.	.	.	.	.	.	.	.	4b\
8D\J	.	.	.	.	.	.	.	.	.	.	.	.	.
=6	=6	=6	=6	=6	=6	=6	=6	=6	=6	=6	=6	=6	=6
!	!	!	!	!	!	!	!	!	!	!	!	!	!
8C#/L	.	8.ee\L	.	8.ee\L	.	2ryy	2r	.	.	2ryy	2ryy	2ryy	8.ee\L
8C#/	.	.	.	.	.	.	.	.	.	.	.	.	.
.	.	16g#X/Jk	.	16g#X/Jk	.	.	.	.	.	.	.	.	16g#X/Jk
.	.	8qqg#/	.	8qqg#/	.	.	.	.	.	.	.	.	8qqg#/
8C#/	.	4an/	.	4an/	.	.	.	.	.	.	.	.	4an/
8C#/J	.	.	.	.	.	.	.	.	.	.	.	.	.
=7	=7	=7	=7	=7	=7	=7	=7	=7	=7	=7	=7	=7	=7
8BB/L	.	(4dd\	.	(4dd\	.	2ryy	2r	.	.	2ryy	2ryy	2ryy	4dd\
8GG#X/	.	.	.	.	.	.	.	.	.	.	.	.	.
*	*	*Xtuplet	*	*Xtuplet	*	*	*	*	*	*	*	*	*Xtuplet
8AA/	.	24cc#\LL)	.	24cc#\LL)	.	.	.	.	.	.	.	.	24cc#\LL
.	.	24dd\	.	24dd\	.	.	.	.	.	.	.	.	24dd\
.	.	24ee\JJ	.	24ee\JJ	.	.	.	.	.	.	.	.	24ee\JJ
8D/J	.	24ff#\LL	.	24ff#\LL	.	.	.	.	.	.	.	.	24ff#\LL
.	.	24gg#X\	.	24gg#X\	.	.	.	.	.	.	.	.	24gg#X\
.	.	24aa\JJ	.	24aa\JJ	.	.	.	.	.	.	.	.	24aa\JJ
=8	=8	=8	=8	=8	=8	=8	=8	=8	=8	=8	=8	=8	=8
!LO:TX:t=P:problem=mixed beam	!	!	!	!	!	!	!	!	!	!	!	!	!
8E\L	.	8cc#\L	.	8cc#\L	.	2ryy	2r	.	.	2ryy	2ryy	2ryy	8cc#\L
8EE/J	.	8b\J	.	8b\J	.	.	.	.	.	.	.	.	8b\J
4EE/	.	4r	.	4r	.	.	.	.	.	.	.	.	4r
=9	=9	=9	=9	=9	=9	=9	=9	=9	=9	=9	=9	=9	=9
!	!LO:DY:a:t=pia&colon;	!	!LO:DY:a:t=pia.	!	!LO:DY:a:t=pia.	!	!	!	!	!	!	!	!
8E\L	p	4b\	p	4dd\	p	2ryy	2r	.	.	2ryy	2ryy	2ryy	2r
8E\	.	.	.	.	.	.	.	.	.	.	.	.	.
8E\	.	8.a\L	.	8.cc#\L	.	.	.	.	.	.	.	.	.
8E\J	.	.	.	.	.	.	.	.	.	.	.	.	.
.	.	(32b\LL	.	(32dd\LL	.	.	.	.	.	.	.	.	.
.	.	32cc#\JJJ)	.	32ee\JJJ)	.	.	.	.	.	.	.	.	.
=10	=10	=10	=10	=10	=10	=10	=10	=10	=10	=10	=10	=10	=10
!	!	!	!	!	!	!	!	!	!	!	!	!	!
.	.	8qqcc#/	.	8qqee/	.	.	.	.	.	.	.	.	.
8E\L	.	4b\	.	4dd\	.	2ryy	2r	.	.	2ryy	2ryy	2ryy	2r
8E\	.	.	.	.	.	.	.	.	.	.	.	.	.
8AA/J	.	8a\L	.	8cc#\L	.	.	.	.	.	.	.	.	.
8r	.	8cc#\J	.	8aa\J	.	.	.	.	.	.	.	.	.
=11	=11	=11	=11	=11	=11	=11	=11	=11	=11	=11	=11	=11	=11
8E\L	.	4b\	.	4dd\	.	2ryy	2r	.	.	2ryy	2ryy	2ryy	2r
8E\	.	.	.	.	.	.	.	.	.	.	.	.	.
8E\	.	8.a\L	.	8.cc#\L	.	.	.	.	.	.	.	.	.
8E\J	.	.	.	.	.	.	.	.	.	.	.	.	.
.	.	(32b\LL	.	32dd\LL	.	.	.	.	.	.	.	.	.
.	.	32cc#\JJJ)	.	32ee\JJJ	.	.	.	.	.	.	.	.	.
!	!	!LO:LB:g=original	!	!LO:LB:g=original	!	!	!	!	!	!	!	!	!
=12	=12	=12	=12	=12	=12	=12	=12	=12	=12	=12	=12	=12	=12
!	!	!	!	!	!	!	!	!	!	!	!	!	!
.	.	8qqcc#/	.	8qqee/	.	.	.	.	.	.	.	.	.
8E\L	.	4b\	.	4dd\	.	2ryy	2r	.	.	2ryy	2ryy	2ryy	2r
8E\	.	.	.	.	.	.	.	.	.	.	.	.	.
.	.	.	.	8qqdd/	.	.	.	.	.	.	.	.	.
8A\	.	4a\	.	4cc#\	.	.	.	.	.	.	.	.	.
8AA/J	.	.	.	.	.	.	.	.	.	.	.	.	.
=13	=13	=13	=13	=13	=13	=13	=13	=13	=13	=13	=13	=13	=13
!LO:TX:t=P:problem=mixed beam	!	!	!	!	!	!	!	!	!	!	!	!	!
8D\L	.	8a/L	.	4ff#\	.	2ryy	2r	.	.	2ryy	2ryy	2ryy	2r
8D\	.	8a/J	.	.	.	.	.	.	.	.	.	.	.
8E\	.	(16f#/LL	.	(16dd\LL	.	.	.	.	.	.	.	.	.
.	.	16d/)	.	16b\)	.	.	.	.	.	.	.	.	.
8EE/J	.	(16c#/	.	(16a\	.	.	.	.	.	.	.	.	.
.	.	16B/JJ)	.	16g#X\JJ)	.	.	.	.	.	.	.	.	.
!LO:LB:g=original	!	!	!	!	!	!	!	!	!	!	!	!	!
=14	=14	=14	=14	=14	=14	=14	=14	=14	=14	=14	=14	=14	=14
!LO:TX:t=P:problem=mixed beam	!	!	!	!LO:SIC:s=8qg#	!	!	!	!	!	!	!	!	!
.	.	8qqB/	.	8qqg/	.	.	.	.	.	.	.	.	.
8AA/L	.	4c#/	.	4a/	.	2ryy	2r	.	.	2ryy	2ryy	2ryy	2r
!	!LO:DY:a:t=for	!	!	!	!	!	!	!	!	!	!	!	!
16A\L	f	.	.	.	.	.	.	.	.	.	.	.	.
16Gn\JJ	.	.	.	.	.	.	.	.	.	.	.	.	.
8F#\L	.	4r	.	4r	.	.	.	.	.	.	.	.	.
8E\J	.	.	.	.	.	.	.	.	.	.	.	.	.
=15	=15	=15	=15	=15	=15	=15	=15	=15	=15	=15	=15	=15	=15
!	!	!	!LO:DY:a:t=for	!	!LO:DY:a:t=for	!	!	!	!	!	!	!	!
8D\L	.	4aa\	f	4aa\	f	2ryy	2r	.	.	2ryy	2ryy	2ryy	4aa\
8D\	.	.	.	.	.	.	.	.	.	.	.	.	.
8D\	.	(16ggn\LL	.	(16ggn\LL	.	.	.	.	.	.	.	.	(16gg\LL
.	.	16ff#\)	.	16ff#\)	.	.	.	.	.	.	.	.	16ff#\)
8D\J	.	(16ee\	.	(16ee\	.	.	.	.	.	.	.	.	(16ee\
.	.	16dd\JJ)	.	16dd\JJ)	.	.	.	.	.	.	.	.	16dd\JJ)
=16	=16	=16	=16	=16	=16	=16	=16	=16	=16	=16	=16	=16	=16
!	!	!	!	!	!	!	!	!	!	!	!	!	!
.	.	8qqdd/	.	8qqdd/	.	.	.	.	.	.	.	.	8qqdd/
8E\L	.	4ccn\	.	4ccn\	.	2ryy	2r	.	.	2ryy	2ryy	2ryy	4ccn\
8F#\	.	.	.	.	.	.	.	.	.	.	.	.	.
.	.	8qqcc/	.	8qqcc/	.	.	.	.	.	.	.	.	8qqcc/
8G\	.	4b\	.	4b\	.	.	.	.	.	.	.	.	4b\
8GG/J	.	.	.	.	.	.	.	.	.	.	.	.	.
=17	=17	=17	=17	=17	=17	=17	=17	=17	=17	=17	=17	=17	=17
8E\L	.	4bb\	.	4bb\	.	2ryy	2r	.	.	2ryy	2ryy	2ryy	4bb\
8E\	.	.	.	.	.	.	.	.	.	.	.	.	.
8E\	.	16aa\LL	.	(16aa\LL	.	.	.	.	.	.	.	.	(16aa\LL
.	.	16gg#X\	.	16gg#X\)	.	.	.	.	.	.	.	.	16gg#X\)
8E\J	.	16ff#\	.	(16ff#\	.	.	.	.	.	.	.	.	(16ff#\
.	.	16ee\JJ	.	16ee\JJ)	.	.	.	.	.	.	.	.	16ee\JJ)
!	!	!	!	!	!	!	!	!	!	!	!	!	!LO:LB:g=original
=18	=18	=18	=18	=18	=18	=18	=18	=18	=18	=18	=18	=18	=18
!	!	!	!	!	!	!	!	!	!	!	!	!	!
.	.	8qqee/	.	8qqee/	.	.	.	.	.	.	.	.	8qqee/
8F#\L	.	4dd\	.	4dd\	.	2ryy	2r	.	.	2ryy	2ryy	2ryy	4dd\
8G#X\	.	.	.	.	.	.	.	.	.	.	.	.	.
.	.	8qqdd/	.	8qqdd/	.	.	.	.	.	.	.	.	8qqdd/
8A\	.	4cc#\	.	4cc#X\	.	.	.	.	.	.	.	.	4cc#\
8AA/J	.	.	.	.	.	.	.	.	.	.	.	.	.
=19	=19	=19	=19	=19	=19	=19	=19	=19	=19	=19	=19	=19	=19
!LO:TX:t=P:problem=mixed beam	!	!	!	!	!	!	!	!	!	!	!	!	!
8AA/L	.	4a/	.	4a/	.	2ryy	2r	.	.	2ryy	2ryy	2ryy	4a/
8A\	.	.	.	.	.	.	.	.	.	.	.	.	.
8C#/	.	8ee\L	.	8ggn\L	.	.	.	.	.	.	.	.	8gg\L
8D/J	.	8dd\J	.	8ff#\J	.	.	.	.	.	.	.	.	8ff#\J
=20	=20	=20	=20	=20	=20	=20	=20	=20	=20	=20	=20	=20	=20
!LO:TX:t=P:problem=mixed beam	!	!	!	!	!	!	!	!	!	!	!	!	!
8AA/L	.	8ddT\L	.	8ff#t\L	.	2ryy	2r	.	.	2ryy	2ryy	2ryy	8ff#\L
16A\L	.	8cc#\J	.	8ee\J	.	.	.	.	.	.	.	.	8ee\J
16Gn\JJ	.	.	.	.	.	.	.	.	.	.	.	.	.
8F#\L	.	8r	.	8r	.	.	.	.	.	.	.	.	8r
8F#\J	.	8a\	.	8a\	.	.	.	.	.	.	.	.	8a\
=21	=21	=21	=21	=21	=21	=21	=21	=21	=21	=21	=21	=21	=21
8G\L	.	8.b\L	.	8.b\L	.	2ryy	2r	.	.	2ryy	2ryy	2ryy	8.b\L
8E\	.	.	.	.	.	.	.	.	.	.	.	.	.
.	.	16gg\Jk	.	16gg\Jk	.	.	.	.	.	.	.	.	16gg\Jk
.	.	8qqdd/	.	8qqdd/	.	.	.	.	.	.	.	.	8qqdd/
8A\	.	4cc#t\	.	4cc#t\	.	.	.	.	.	.	.	.	4cc#t\
8G\J	.	.	.	.	.	.	.	.	.	.	.	.	.
=22	=22	=22	=22	=22	=22	=22	=22	=22	=22	=22	=22	=22	=22
8F#\L	.	8dd\L	.	8dd\L	.	2ryy	2r	.	.	2ryy	2ryy	2ryy	8dd\L
8G\	.	8bb\J	.	8bb\J	.	.	.	.	.	.	.	.	8bb\J
8F#\	.	16aa\LL	.	16aa\LL	.	.	.	.	.	.	.	.	(16aa\LL
.	.	16gg\	.	16gg\	.	.	.	.	.	.	.	.	16gg\)
8G\J	.	16ff#\	.	16ff#\	.	.	.	.	.	.	.	.	(16ff#\
.	.	16ee\JJ	.	16ee\JJ	.	.	.	.	.	.	.	.	16ee\JJ)
=23	=23	=23	=23	=23	=23	=23	=23	=23	=23	=23	=23	=23	=23
!	!	!	!	!	!	!	!	!	!	!	!	!	!
8A\L	.	4dd\	.	4dd\	.	2ryy	2r	.	.	2ryy	2ryy	2ryy	4dd\
8G\	.	.	.	.	.	.	.	.	.	.	.	.	.
8A\	.	4eeT\	.	4eeT\	.	.	.	.	.	.	.	.	4eeT\
8AA/J	.	.	.	.	.	.	.	.	.	.	.	.	.
!	!	!	!	!LO:LB:g=original	!	!	!	!	!	!	!	!	!
=24	=24	=24	=24	=24	=24	=24	=24	=24	=24	=24	=24	=24	=24
.	.	8qqee/	.	8qqee/	.	.	.	.	.	.	.	.	8qqee/
8D\L	.	4dd\	.	4dd\	.	2ryy	2r	.	.	2ryy	2ryy	2ryy	4dd\
16D\L	.	.	.	.	.	.	.	.	.	.	.	.	.
16E\JJ	.	.	.	.	.	.	.	.	.	.	.	.	.
!	!LO:DY:a:t=pia&colon;	!	!	!	!	!	!	!	!	!	!	!	!
8F#\L	p	8r	.	8r	.	.	.	.	.	.	.	.	4r
!	!	!	!LO:DY:a:t=pia.	!	!LO:DY:a:t=pia.	!	!	!	!	!	!	!	!
8F#\J	.	8a/	p	8a\	p	.	.	.	.	.	.	.	.
!LO:LB:g=original	!	!	!	!	!	!	!	!	!	!	!	!	!
=25	=25	=25	=25	=25	=25	=25	=25	=25	=25	=25	=25	=25	=25
8G\L	.	8.b\L	.	8.b\L	.	2ryy	2r	.	.	2ryy	2ryy	2ryy	2r
8E\	.	.	.	.	.	.	.	.	.	.	.	.	.
.	.	16gg\Jk	.	16gg\Jk	.	.	.	.	.	.	.	.	.
.	.	8qqdd/	.	8qqdd/	.	.	.	.	.	.	.	.	.
8A\	.	4cc#\	.	4cc#\	.	.	.	.	.	.	.	.	.
8G\J	.	.	.	.	.	.	.	.	.	.	.	.	.
=26	=26	=26	=26	=26	=26	=26	=26	=26	=26	=26	=26	=26	=26
8F#\L	.	8dd\L	.	8dd\L	.	2ryy	2r	.	.	2ryy	2ryy	2ryy	2r
8G\	.	8bb\J	.	8bb\J	.	.	.	.	.	.	.	.	.
8F#\	.	(16aa\LL	.	(16aa\LL	.	.	.	.	.	.	.	.	.
.	.	16gg\)	.	16gg\)	.	.	.	.	.	.	.	.	.
8G\J	.	(16ff#\	.	(16ff#\	.	.	.	.	.	.	.	.	.
.	.	16ee\JJ)	.	16ee\JJ)	.	.	.	.	.	.	.	.	.
=27	=27	=27	=27	=27	=27	=27	=27	=27	=27	=27	=27	=27	=27
!	!	!	!	!	!	!	!	!	!	!	!	!	!
8A\L	.	4dd\	.	4dd\	.	2ryy	2r	.	.	2ryy	2ryy	2ryy	2r
8G\	.	.	.	.	.	.	.	.	.	.	.	.	.
8A\	.	4eeT\	.	4eeT\	.	.	.	.	.	.	.	.	.
8AA/J	.	.	.	.	.	.	.	.	.	.	.	.	.
=28	=28	=28	=28	=28	=28	=28	=28	=28	=28	=28	=28	=28	=28
!	!LO:DY:a:t=for&colon;	!	!LO:DY:a:t=for	!	!LO:DY:a:t=for	!	!	!	!	!	!	!	!
8D\L	f	(16dd\LL	f	(16dd\LL	f	2ryy	2r	.	.	2ryy	2ryy	2ryy	(16dd\LL
.	.	16ddd\)	.	16ddd\)	.	.	.	.	.	.	.	.	16ddd\)
8F#\	.	(16aa\	.	(16aa\	.	.	.	.	.	.	.	.	(16aa\
.	.	16cccn\JJ)	.	16cccn\JJ)	.	.	.	.	.	.	.	.	16cccn\JJ)
8G\	.	(16bb\LL	.	(16bb\LL	.	.	.	.	.	.	.	.	(16bb\LL
.	.	16ee\)	.	16ee\)	.	.	.	.	.	.	.	.	16ee\)
8B\J	.	(16gg\	.	(16gg\	.	.	.	.	.	.	.	.	(16gg\
.	.	16ee\JJ)	.	16ee\JJ)	.	.	.	.	.	.	.	.	16ee\JJ)
=29	=29	=29	=29	=29	=29	=29	=29	=29	=29	=29	=29	=29	=29
!	!	!	!	!	!	!	!	!	!	!	!	!	!
8A\L	.	4dd\	.	4dd\	.	2ryy	2r	.	.	2ryy	2ryy	2ryy	4dd\
8G\	.	.	.	.	.	.	.	.	.	.	.	.	.
8A\	.	4eeT\	.	4eeT\	.	.	.	.	.	.	.	.	4eeT\
8AA/J	.	.	.	.	.	.	.	.	.	.	.	.	.
=30	=30	=30	=30	=30	=30	=30	=30	=30	=30	=30	=30	=30	=30
!	!	!	!	!	!	!	!	!	!	!	!	!	!
4D;;\	.	8dd\L	.	8dd\L	.	2ryy	2r	.	.	2ryy	2ryy	2ryy	8dd\L
.	.	8a\J	.	8a/J	.	.	.	.	.	.	.	.	8a\J
!	!	!	!	!	!	!	!	!	!	!	!	!	!
4r	.	4d;;/	.	4d;;/	.	.	.	.	.	.	.	.	4d;;/
=31	=31	=31	=31	=31	=31	=31	=31	=31	=31	=31	=31	=31	=31
!	!LO:DY:a:t=pia&colon;	!	!LO:DY:a:t=pia.	!	!	!	!	!	!	!	!	!	!
8D\L	p	8r	p	4aa\	.	2ryy	4a\	Ma-	Je-	2ryy	2ryy	2ryy	2r
8F#\	.	8dd\L	.	.	.	.	.	.	.	.	.	.	.
8G\	.	8dd\	.	(16gg\LL	.	.	(16g\LL	-ter	-su	.	.	.	.
.	.	.	.	16ff#\)	.	.	16f#\JJ)	.	.	.	.	.	.
8G\J	.	8b\J	.	(16ee\	.	.	(16e\LL	a-	a-	.	.	.	.
.	.	.	.	16dd\JJ)	.	.	16d\JJ)	.	.	.	.	.	.
=32	=32	=32	=32	=32	=32	=32	=32	=32	=32	=32	=32	=32	=32
.	.	8qqf#/	.	8qqdd/	.	.	8qqd/	.	.	.	.	.	.
8A\L	.	4e/	.	4cc#\	.	2ryy	8.c#\	-ma-	-ma-	2ryy	2ryy	2ryy	2r
8G\	.	.	.	.	.	.	.	.	.	.	.	.	.
.	.	.	.	.	.	.	16c#\	-bi-	.	.	.	.	.
.	.	8qqe/	.	8qqcc#/	.	.	.	.	.	.	.	.	.
8F#\	.	4f#/	.	4dd\	.	.	4d\	-lis	-tor	.	.	.	.
8D\J	.	.	.	.	.	.	.	.	.	.	.	.	.
=33	=33	=33	=33	=33	=33	=33	=33	=33	=33	=33	=33	=33	=33
8r	.	4g/	.	8.b\L	.	2ryy	(8.B\L	O-	pa-	2ryy	2ryy	2ryy	2r
!	!	!	!	!	!	!	!	!	!	!	!	!	!
8D\L	.	.	.	.	.	.	.	.	.	.	.	.	.
.	.	.	.	(32cc#\LL	.	.	32c#\LL	.	.	.	.	.	.
.	.	.	.	32dd\JJJ)	.	.	32d\JJJ)	.	.	.	.	.	.
8A\	.	8f#/L	.	8a/L	.	.	8A\	-ra	.	.	.	.	.
8AA/J	.	8e/J	.	8g/J	.	.	8G/	pro	.	.	.	.	.
=34	=34	=34	=34	=34	=34	=34	=34	=34	=34	=34	=34	=34	=34
8AA/L	.	8eT/L	.	8g/L	.	2ryy	8G/	no-	.	2ryy	2ryy	2ryy	2r
8D/	.	8d/J	.	8f#/J	.	.	8F#/	-biſ	-cis	.	.	.	.
8F#/	.	4r	.	4r	.	.	4r	.	.	.	.	.	.
8E/J	.	.	.	.	.	.	.	.	.	.	.	.	.
=35	=35	=35	=35	=35	=35	=35	=35	=35	=35	=35	=35	=35	=35
8D/L	.	8r	.	8.ff#\L	.	2ryy	8.f#\L	Ma-	mi-	2ryy	2ryy	2ryy	2r
8D/	.	8f#/L	.	.	.	.	.	.	.	.	.	.	.
.	.	.	.	16a#X\Jk	.	.	16A#X\Jk	.	.	.	.	.	.
.	.	.	.	8qqa#/	.	.	8qqA#/	.	.	.	.	.	.
8D/	.	8f#/	.	4b\	.	.	4B\	-ter	se-	.	.	.	.
8D/J	.	8f#/J	.	.	.	.	.	.	.	.	.	.	.
!	!	!	!	!LO:LB:g=original	!	!	!LO:LB:g=original	!	!	!	!	!	!
=36	=36	=36	=36	=36	=36	=36	=36	=36	=36	=36	=36	=36	=36
8C#/L	.	8r	.	8.ee\L	.	2ryy	8.e\L	Ma-	-re-	2ryy	2ryy	2ryy	2r
8C#/	.	8e/L	.	.	.	.	.	.	.	.	.	.	.
.	.	.	.	16g#X\Jk	.	.	16G#X\Jk	.	.	.	.	.	.
.	.	.	.	8qqg#/	.	.	8qqG#/	.	.	.	.	.	.
8C#/	.	8e/	.	4an/	.	.	4An\	-ter	-re	.	.	.	.
8C#/J	.	8e/J	.	.	.	.	.	.	.	.	.	.	.
=37	=37	=37	=37	=37	=37	=37	=37	=37	=37	=37	=37	=37	=37
8BB/L	.	8g#X/L	.	4dd\	.	2ryy	4d\	ad-	mi-	2ryy	2ryy	2ryy	2r
8GG#X/	.	8b/	.	.	.	.	.	.	.	.	.	.	.
8AA/	.	8e/	.	4cc#\	.	.	4c#\	-mi-	-se-	.	.	.	.
8D#X/J	.	8a/J	.	.	.	.	.	.	.	.	.	.	.
!LO:LB:g=original	!	!	!	!LO:LB:g=original	!	!	!	!	!	!	!	!	!
=38	=38	=38	=38	=38	=38	=38	=38	=38	=38	=38	=38	=38	=38
8E\L	.	8a/L	.	8cc#t\L	.	2ryy	16c#\	-ra-	-re-	2ryy	2ryy	2ryy	2r
.	.	.	.	.	.	.	16c#\	-bi-	.	.	.	.	.
8E\	.	8g#X/J	.	8b\J	.	.	8B\	-lis	-re	.	.	.	.
8G#X\	.	8r	.	8r	.	.	8r	.	.	.	.	.	.
8E\J	.	8g#/	.	8b\	.	.	8B\	Ma-	mi-	.	.	.	.
=39	=39	=39	=39	=39	=39	=39	=39	=39	=39	=39	=39	=39	=39
8AA/L	.	(16a\LL	.	(16cc#\LL	.	2ryy	(16c#\LL	-ter	.	2ryy	2ryy	2ryy	2r
.	.	16cc#\JJ)	.	16aa\JJ)	.	.	16A\JJ)	.	.	.	.	.	.
8AA/	.	4cc#\	.	4ee\	.	.	4e\	Cre-	-se-	.	.	.	.
8AA/	.	.	.	.	.	.	.	.	.	.	.	.	.
8AA/J	.	(16b\LL	.	(16dd\LL	.	.	(16d\LL	-a-	-re-	.	.	.	.
.	.	16a\JJ)	.	16cc#\JJ)	.	.	16c#\JJ)	.	.	.	.	.	.
=40	=40	=40	=40	=40	=40	=40	=40	=40	=40	=40	=40	=40	=40
8E\L	.	8g#X/	.	(16b\LL	.	2ryy	(16B\LL	-to-	-re	2ryy	2ryy	2ryy	2r
.	.	.	.	16cc#\JJ)	.	.	16G#X\JJ)	.	.	.	.	.	.
8E\	.	4b/	.	4dd\	.	.	4E/	-ris	no-	.	.	.	.
8E\	.	.	.	.	.	.	.	.	.	.	.	.	.
8E\J	.	(16a/LL	.	(16cc#\LL	.	.	8B\	Ma-	-biſ	.	.	.	.
.	.	16g#X/JJ)	.	16b\JJ)	.	.	.	.	.	.	.	.	.
=41	=41	=41	=41	=41	=41	=41	=41	=41	=41	=41	=41	=41	=41
8AA/L	.	(16a\LL	.	(16cc#\LL	.	2ryy	(16c#\LL	-ter	mi-	2ryy	2ryy	2ryy	2r
.	.	16cc#\JJ)	.	16aa\JJ)	.	.	16A\JJ)	.	.	.	.	.	.
8AA/	.	4cc#\	.	4ee\	.	.	4e\	Sal-	-se-	.	.	.	.
8AA/	.	.	.	.	.	.	.	.	.	.	.	.	.
8AA/J	.	(16b\LL	.	(16dd\LL	.	.	(16d\LL	-va-	-re-	.	.	.	.
.	.	16a\JJ)	.	16cc#\JJ)	.	.	16c#\JJ)	.	.	.	.	.	.
=42	=42	=42	=42	=42	=42	=42	=42	=42	=42	=42	=42	=42	=42
8E\L	.	8g#X/	.	8b\	.	2ryy	16B\LL	-to-	-re	2ryy	2ryy	2ryy	2r
.	.	.	.	.	.	.	16G#X\JJ	.	.	.	.	.	.
8E\	.	4b/	.	4dd\	.	.	4E/	-ris	no-	.	.	.	.
8E\	.	.	.	.	.	.	.	.	.	.	.	.	.
8E\J	.	16a/LL	.	(16cc#\LL	.	.	8B\	O-	-biſ	.	.	.	.
.	.	16g#X/JJ	.	16b\JJ)	.	.	.	.	.	.	.	.	.
!	!	!	!	!	!	!	!LO:LB:g=original	!	!	!	!	!	!
=43	=43	=43	=43	=43	=43	=43	=43	=43	=43	=43	=43	=43	=43
*	*	*	*	*	*	*	*Xtuplet	*	*	*	*	*	*
4AA/	.	24a\LL	.	24cc#\LL	.	2ryy	24c#\LL	.	no-	2ryy	2ryy	2ryy	2r
.	.	24b\	.	24dd\	.	.	24d\	.	.	.	.	.	.
.	.	24cc#\JJ	.	24ee\JJ	.	.	24e\JJ	.	.	.	.	.	.
.	.	24dd\LL	.	24ff#\LL	.	.	24f#\LL	.	.	.	.	.	.
.	.	24b\	.	24gg#X\	.	.	24g#X\	.	.	.	.	.	.
.	.	24cc#\JJ	.	24aa\JJ	.	.	24a\JJ	.	.	.	.	.	.
8r	.	8b\L	.	8dd\L	.	.	8d\	-ra	.	.	.	.	.
8D#X\	.	8a\J	.	8cc#\J	.	.	8c#\	pro	.	.	.	.	.
=44	=44	=44	=44	=44	=44	=44	=44	=44	=44	=44	=44	=44	=44
!LO:TX:t=P:problem=mixed beam	!	!	!	!	!	!	!	!	!	!	!	!	!
8E\L	.	8a/L	.	8cc#\L	.	2ryy	8c#\	no-	.	2ryy	2ryy	2ryy	2r
8EE/J	.	8g#X/J	.	8b\J	.	.	8B\	-biſ	-biſ	.	.	.	.
4EE/	.	4r	.	4r	.	.	4r	.	.	.	.	.	.
=45	=45	=45	=45	=45	=45	=45	=45	=45	=45	=45	=45	=45	=45
8E\L	.	4b/	.	4dd\	.	2ryy	4d\	O-	mi-	2ryy	2ryy	2ryy	2r
8E\	.	.	.	.	.	.	.	.	.	.	.	.	.
8E\	.	(8.a/L	.	8.cc#\L	.	.	8.c#\L	.	-se-	.	.	.	.
8E\J	.	.	.	.	.	.	.	.	.	.	.	.	.
.	.	32b/LL	.	(32dd\LL	.	.	32d\LL	.	.	.	.	.	.
.	.	32cc#/JJJ)	.	32ee\JJJ)	.	.	32e\JJJ	.	.	.	.	.	.
=46	=46	=46	=46	=46	=46	=46	=46	=46	=46	=46	=46	=46	=46
!	!	!	!	!	!	!	!	!	!	!	!	!	!
.	.	8qqcc#/	.	8qqee/	.	.	8qqe/	.	.	.	.	.	.
8E\L	.	4b\	.	4dd\	.	2ryy	4d\	.	-re-	2ryy	2ryy	2ryy	2r
8E\	.	.	.	.	.	.	.	.	.	.	.	.	.
.	.	.	.	.	.	.	8qqd/	.	.	.	.	.	.
8AA/J	.	8a\L	.	8cc#\L	.	.	4c#\	-ra	-re	.	.	.	.
8r	.	8cc#\J	.	8aa\J	.	.	.	.	.	.	.	.	.
!	!	!	!	!LO:LB:g=original	!	!	!	!	!	!	!	!	!
=47	=47	=47	=47	=47	=47	=47	=47	=47	=47	=47	=47	=47	=47
8E\L	.	4b\	.	4dd\	.	2ryy	4d\	O-	mi-	2ryy	2ryy	2ryy	2r
8E\	.	.	.	.	.	.	.	.	.	.	.	.	.
8E\	.	8.a\L	.	8.cc#\L	.	.	8.c#\L	-ra	-se-	.	.	.	.
8E\J	.	.	.	.	.	.	.	.	.	.	.	.	.
.	.	(32b\LL	.	(32dd\LL	.	.	32d\LL	.	.	.	.	.	.
.	.	32cc#\JJJ)	.	32ee\JJJ)	.	.	32e\JJJ	.	.	.	.	.	.
=48	=48	=48	=48	=48	=48	=48	=48	=48	=48	=48	=48	=48	=48
!	!	!	!	!	!	!	!	!	!	!	!	!	!
.	.	8qqcc#/	.	8qqee/	.	.	8qqe/	.	.	.	.	.	.
8E\L	.	4b\	.	4dd\	.	2ryy	4d\	O-	-re-	2ryy	2ryy	2ryy	2r
8E\	.	.	.	.	.	.	.	.	.	.	.	.	.
.	.	8qqb/	.	8qqdd/	.	.	.	.	.	.	.	.	.
8A\	.	4a\	.	4cc#\	.	.	4c#\	-ra	-re	.	.	.	.
8AA/J	.	.	.	.	.	.	.	.	.	.	.	.	.
!	!	!LO:LB:g=original	!	!	!	!	!	!	!	!	!	!	!
=49	=49	=49	=49	=49	=49	=49	=49	=49	=49	=49	=49	=49	=49
!LO:TX:t=P:problem=mixed beam	!	!	!	!	!	!	!	!	!	!	!	!	!
8D\L	.	8a/L	.	4ff#\	.	2ryy	4f#\	pro	mi-	2ryy	2ryy	2ryy	2r
8D\	.	8a/J	.	.	.	.	.	.	.	.	.	.	.
8E\	.	(16f#/LL	.	(16dd\LL	.	.	(16d\LL	no-	-se-	.	.	.	.
.	.	16d/)	.	16b\)	.	.	16B\JJ)	.	.	.	.	.	.
8EE/J	.	(16c#/	.	(16a\	.	.	(16A\LL	-biſ	.	.	.	.	.
.	.	16B/JJ)	.	16g#X\JJ)	.	.	16G#X\JJ)	.	.	.	.	.	.
!	!	!	!	!	!	!	!LO:LB:g=original	!	!	!	!	!	!
=50	=50	=50	=50	=50	=50	=50	=50	=50	=50	=50	=50	=50	=50
8AA/L	.	8c#/L	.	16a\LL	.	2ryy	16A\LL	O-	-re-	2ryy	2ryy	2ryy	2r
.	.	.	.	16aa\	.	.	16a\	.	.	.	.	.	.
8BB/	.	8d/	.	16gg#X\	.	.	16g#X\	.	.	.	.	.	.
.	.	.	.	16ff#\JJ	.	.	16f#\JJ	.	.	.	.	.	.
8C#/	.	8e/	.	16ee\LL	.	.	16e\LL	-ra	-re	.	.	.	.
.	.	.	.	16dd\	.	.	16d\JJ	.	.	.	.	.	.
8D/J	.	8f#/J	.	16cc#\	.	.	16c#\LL	pro	.	.	.	.	.
.	.	.	.	16b\JJ	.	.	16B\JJ	.	.	.	.	.	.
!LO:LB:g=original	!	!	!	!	!	!	!	!	!	!	!	!	!
=51	=51	=51	=51	=51	=51	=51	=51	=51	=51	=51	=51	=51	=51
!LO:TX:t=P:problem=mixed beam	!	!	!	!	!	!	!	!	!	!	!	!	!
8E\L	.	4c#/	.	4a/	.	2ryy	4A\	no-	no-	2ryy	2ryy	2ryy	2r
8D\	.	.	.	.	.	.	.	.	.	.	.	.	.
8E\	.	4dT/	.	4bT/	.	.	4BT\	.	.	.	.	.	.
8EE/J	.	.	.	.	.	.	.	.	.	.	.	.	.
=52	=52	=52	=52	=52	=52	=52	=52	=52	=52	=52	=52	=52	=52
!	!LO:DY:a:t=for&colon;	!	!	!	!	!	!	!	!	!	!	!	!
8AA/L	f	4c#/	.	4a/	.	2ryy	4A\	-biſ	-biſ.	2ryy	2ryy	2ryy	4r
16AA/L	.	.	.	.	.	.	.	.	.	.	.	.	.
16BB/JJ	.	.	.	.	.	.	.	.	.	.	.	.	.
8C#/L	.	8r	.	8r	.	.	4r	.	.	.	.	.	8r
!	!	!	!LO:DY:a:t=for.	!	!LO:DY:a:t=for&colon;	!	!	!	!	!	!	!	!
8C#/J	.	8e/	f	8e/	f	.	.	.	.	.	.	.	8e/
!	!	!	!	!	!	!	!	!	!	!	!	!	!LO:LB:g=original
=53	=53	=53	=53	=53	=53	=53	=53	=53	=53	=53	=53	=53	=53
!	!	!LO:TX:t=P:problem=mixed beam	!	!LO:TX:t=P:problem=mixed beam	!	!	!	!	!	!	!	!	!LO:TX:t=P:problem=mixed beam
8D/L	.	8.f#/L	.	8.f#/L	.	2ryy	2r	.	.	2ryy	2ryy	2ryy	8.f#/L
8BB/	.	.	.	.	.	.	.	.	.	.	.	.	.
.	.	16dd/Jk	.	16dd\Jk	.	.	.	.	.	.	.	.	16dd\Jk
.	.	8qqa/	.	8qqa/	.	.	.	.	.	.	.	.	8qqa/
8E/	.	4g#X/	.	4g#X/	.	.	.	.	.	.	.	.	4g#X/
8D/J	.	.	.	.	.	.	.	.	.	.	.	.	.
=54	=54	=54	=54	=54	=54	=54	=54	=54	=54	=54	=54	=54	=54
8C#/L	.	8a\L	.	8a\L	.	2ryy	2r	.	.	2ryy	2ryy	2ryy	8a\L
8D/	.	8ff#\J	.	8ff#\J	.	.	.	.	.	.	.	.	8ff#\J
8C#/	.	(16ee\LL	.	(16ee\LL	.	.	.	.	.	.	.	.	(16ee\LL
.	.	16dd\)	.	16dd\)	.	.	.	.	.	.	.	.	16dd\)
8D/J	.	(16cc#\	.	(16cc#\	.	.	.	.	.	.	.	.	(16cc#\
.	.	16b\JJ)	.	16b\JJ)	.	.	.	.	.	.	.	.	16b\JJ)
=55	=55	=55	=55	=55	=55	=55	=55	=55	=55	=55	=55	=55	=55
!LO:TX:t=P:problem=mixed beam	!	!	!	!	!	!	!	!	!	!	!	!	!
8E\L	.	4a/	.	4a/	.	2ryy	2r	.	.	2ryy	2ryy	2ryy	4a/
8D\	.	.	.	.	.	.	.	.	.	.	.	.	.
8E\	.	4bT/	.	4bT/	.	.	.	.	.	.	.	.	4bT/
8EE/J	.	.	.	.	.	.	.	.	.	.	.	.	.
=56	=56	=56	=56	=56	=56	=56	=56	=56	=56	=56	=56	=56	=56
.	.	8qqb/	.	8qqb/	.	.	.	.	.	.	.	.	8qqb/
8AA/L	.	4a/	.	4a/	.	2ryy	2r	.	.	2ryy	2ryy	2ryy	4a/
16AA/L	.	.	.	.	.	.	.	.	.	.	.	.	.
16BB/JJ	.	.	.	.	.	.	.	.	.	.	.	.	.
!	!LO:DY:a:t=pia&colon;	!	!	!	!	!	!	!	!	!	!	!	!
8C#/L	p	8r	.	8r	.	.	.	.	.	.	.	.	4r
!	!	!	!LO:DY:a:t=pia.	!	!LO:DY:a:t=pia.	!	!	!	!	!	!	!	!
8C#/J	.	8e/	p	8e/	p	.	.	.	.	.	.	.	.
=57	=57	=57	=57	=57	=57	=57	=57	=57	=57	=57	=57	=57	=57
!	!	!LO:TX:t=P:problem=mixed beam	!	!LO:TX:t=P:problem=mixed beam	!	!	!	!	!	!	!	!	!
8D/L	.	8.f#/L	.	8.f#/L	.	2ryy	2r	.	.	2ryy	2ryy	2ryy	2r
8BB/	.	.	.	.	.	.	.	.	.	.	.	.	.
.	.	16dd/Jk	.	16dd\Jk	.	.	.	.	.	.	.	.	.
.	.	8qqa/	.	8qqa/	.	.	.	.	.	.	.	.	.
8E/	.	4g#X/	.	4g#X/	.	.	.	.	.	.	.	.	.
8D/J	.	.	.	.	.	.	.	.	.	.	.	.	.
!	!	!	!	!LO:LB:g=original	!	!	!	!	!	!	!	!	!
=58	=58	=58	=58	=58	=58	=58	=58	=58	=58	=58	=58	=58	=58
8C#/L	.	8a\L	.	8a\L	.	2ryy	2r	.	.	2ryy	2ryy	2ryy	2r
8D/	.	8ff#\J	.	8ff#\J	.	.	.	.	.	.	.	.	.
8C#/	.	(16ee\LL	.	(16ee\LL	.	.	.	.	.	.	.	.	.
.	.	16dd\)	.	16dd\)	.	.	.	.	.	.	.	.	.
8D/J	.	(16cc#\	.	(16cc#\	.	.	.	.	.	.	.	.	.
.	.	16b\JJ)	.	16b\JJ)	.	.	.	.	.	.	.	.	.
=59	=59	=59	=59	=59	=59	=59	=59	=59	=59	=59	=59	=59	=59
!LO:TX:t=P:problem=mixed beam	!	!	!	!	!	!	!	!	!	!	!	!	!
8E\L	.	4a/	.	4a/	.	2ryy	2r	.	.	2ryy	2ryy	2ryy	2r
8D\	.	.	.	.	.	.	.	.	.	.	.	.	.
8E\	.	4bT/	.	4bT/	.	.	.	.	.	.	.	.	.
8EE/J	.	.	.	.	.	.	.	.	.	.	.	.	.
=60	=60	=60	=60	=60	=60	=60	=60	=60	=60	=60	=60	=60	=60
!	!LO:DY:a:t=for&colon;	!	!LO:DY:a:t=for	!	!LO:DY:a:t=for	!	!	!	!	!	!	!	!
8AA/L	f	(16a\LL	f	(16a\LL	f	2ryy	2r	.	.	2ryy	2ryy	2ryy	(16a\LL
.	.	16aa\)	.	16aa\)	.	.	.	.	.	.	.	.	16aa\)
8C#/	.	(16ee\	.	(16ee\	.	.	.	.	.	.	.	.	(16ee\
.	.	16ggn\JJ)	.	16ggn\JJ)	.	.	.	.	.	.	.	.	16ggn\JJ)
8D/	.	(16ff#\LL	.	(16ff#\LL	.	.	.	.	.	.	.	.	(16ff#\LL
.	.	16b\)	.	16b\)	.	.	.	.	.	.	.	.	16b\)
8F#/J	.	(16dd\	.	(16dd\	.	.	.	.	.	.	.	.	(16dd\
.	.	16b\JJ)	.	16b\JJ)	.	.	.	.	.	.	.	.	16b\JJ)
!	!	!LO:LB:g=original	!	!	!	!	!	!	!	!	!	!	!
=61	=61	=61	=61	=61	=61	=61	=61	=61	=61	=61	=61	=61	=61
!LO:TX:t=P:problem=mixed beam	!	!	!	!	!	!	!	!	!	!	!	!	!
8E\L	.	4a/	.	4a/	.	2ryy	2r	.	.	2ryy	2ryy	2ryy	4a/
8D\	.	.	.	.	.	.	.	.	.	.	.	.	.
8E\	.	4bT/	.	4bT/	.	.	.	.	.	.	.	.	4bT/
8EE/J	.	.	.	.	.	.	.	.	.	.	.	.	.
=62	=62	=62	=62	=62	=62	=62	=62	=62	=62	=62	=62	=62	=62
4AA/	.	8a/L	.	8a/L	.	2ryy	2r	.	.	2ryy	2ryy	2ryy	8a/L
.	.	8e/J	.	8e/J	.	.	.	.	.	.	.	.	8e/J
4r	.	4A/	.	4A/	.	.	.	.	.	.	.	.	4a/
=63	=63	=63	=63	=63	=63	=63	=63	=63	=63	=63	=63	=63	=63
!	!LO:DY:a:t=pia&colon;	!	!LO:DY:a:t=pia.	!	!LO:DY:a:t=pia.	!	!	!	!	!	!	!	!LO:TX:a:t=37.
8AA/L	p	8r	p	4ee\	p	2ryy	8e\	Vir-	Je-	2ryy	2ryy	2ryy	2r
8C#/	.	8a/L	.	.	.	.	8e\	-go	-su	.	.	.	.
8D/	.	8a/	.	(16dd\LL	.	.	16d\LL	pru-	Spe-	.	.	.	.
.	.	.	.	16cc#\)	.	.	16c#\JJ	.	.	.	.	.	.
8D/J	.	8f#/J	.	(16b\	.	.	16B\LL	-den-	-cu-	.	.	.	.
.	.	.	.	16a\JJ)	.	.	16A\JJ	.	.	.	.	.	.
!LO:LB:g=original	!	!	!	!	!	!	!	!	!	!	!	!	!
=64	=64	=64	=64	=64	=64	=64	=64	=64	=64	=64	=64	=64	=64
.	.	8qqc#/	.	8qqa/	.	.	8qqA/	.	.	.	.	.	.
8E\L	.	4B/	.	4g#X/	.	2ryy	8.G#X/	-tiſ-	-lum	2ryy	2ryy	2ryy	2r
8D\	.	.	.	.	.	.	.	.	.	.	.	.	.
.	.	.	.	.	.	.	16G#/	-si-	vi-	.	.	.	.
.	.	8qqB/	.	8qqg#/	.	.	.	.	.	.	.	.	.
8C#\	.	4c#/	.	4a/	.	.	4A/	-ma	-tae	.	.	.	.
8AA\J	.	.	.	.	.	.	.	.	.	.	.	.	.
=65	=65	=65	=65	=65	=65	=65	=65	=65	=65	=65	=65	=65	=65
8r	.	(4dd\	.	8.ff#\L	.	2ryy	8.f#\	Vir-	mi-	2ryy	2ryy	2ryy	2r
!	!	!	!	!	!	!	!	!	!	!	!	!	!
8AA/L	.	.	.	.	.	.	.	.	.	.	.	.	.
.	.	.	.	(32gg#X\LL	.	.	32g#X\LLL	-go	.	.	.	.	.
.	.	.	.	32aa\JJJ)	.	.	32a\JJJ	.	.	.	.	.	.
8E\	.	8cc#\L)	.	8ee\L	.	.	8e\	ve-	-se-	.	.	.	.
8E\J	.	8b\J	.	8dd\J	.	.	8d\	-ne-	.	.	.	.	.
!	!	!	!	!	!	!	!LO:LB:g=original	!	!	!	!	!	!
=66	=66	=66	=66	=66	=66	=66	=66	=66	=66	=66	=66	=66	=66
8E\L	.	8bT\L	.	8dd\L	.	2ryy	8d\	-ran-	re-	2ryy	2ryy	2ryy	2r
8A\	.	8a\J	.	8cc#\J	.	.	8c#\	-da	-re	.	.	.	.
8E\	.	4r	.	4r	.	.	4r	.	.	.	.	.	.
8C#\J	.	.	.	.	.	.	.	.	.	.	.	.	.
=67	=67	=67	=67	=67	=67	=67	=67	=67	=67	=67	=67	=67	=67
4AA/	.	4cc#\	.	4ee\	.	2ryy	8e\	Vir-	Je-	2ryy	2ryy	2ryy	2r
.	.	.	.	.	.	.	8e\	-go	-su	.	.	.	.
*	*	*	*	*	*	*	*tuplet	*	*	*	*	*	*
.	.	.	.	.	.	.	8qqd/	.	.	.	.	.	.
8r	.	8r	.	8r	.	.	24c#\LL	prae-	e-	.	.	.	.
.	.	.	.	.	.	.	24B\	.	.	.	.	.	.
.	.	.	.	.	.	.	24A\JJ	.	.	.	.	.	.
8AA/	.	8ee\	.	8ggn\	.	.	8gn\	-di	-xem-	.	.	.	.
=68	=68	=68	=68	=68	=68	=68	=68	=68	=68	=68	=68	=68	=68
8AA/L	.	4ee\	.	4gg\	.	2ryy	4g\	Can-	-plum	2ryy	2ryy	2ryy	2r
8AA/	.	.	.	.	.	.	.	.	.	.	.	.	.
.	.	8qqee/	.	8qqgg/	.	.	8qqg/	.	.	.	.	.	.
8D/	.	4dd\	.	4ff#\	.	.	4f#\	-da	.	.	.	.	.
8D/J	.	.	.	.	.	.	.	.	.	.	.	.	.
!	!	!	!	!LO:LB:g=original	!	!	!	!	!	!	!	!	!
=69	=69	=69	=69	=69	=69	=69	=69	=69	=69	=69	=69	=69	=69
4BB/	.	4dd#X\	.	4ff#\	.	2ryy	4f#\	O-	vi-	2ryy	2ryy	2ryy	2r
!	!	!	!	!	!	!	!LO:TX:t=P:problem= klamra łukowa	!	!	!	!	!	!
8r	.	8r	.	8r	.	.	24d#X\LL	-ra	-r-	.	.	.	.
.	.	.	.	.	.	.	24c#\	.	.	.	.	.	.
.	.	.	.	.	.	.	24B\JJ	.	.	.	.	.	.
8BB/	.	8f#/	.	8a/	.	.	8A\	pro	-tu-	.	.	.	.
=70	=70	=70	=70	=70	=70	=70	=70	=70	=70	=70	=70	=70	=70
!	!	!	!	!	!	!	!	!	!	!	!	!	!
8BB/L	.	4f#/	.	4a/	.	2ryy	4A\	no-	.	2ryy	2ryy	2ryy	2r
8BB/	.	.	.	.	.	.	.	.	.	.	.	.	.
.	.	8qqf#/	.	8qqa/	.	.	8qqA/	.	.	.	.	.	.
8E\	.	4e/	.	4g#X/	.	.	4G#X/	-biſ	-tum	.	.	.	.
8E\J	.	.	.	.	.	.	.	.	.	.	.	.	.
=71	=71	=71	=71	=71	=71	=71	=71	=71	=71	=71	=71	=71	=71
8E\L	.	4b\	.	4dd\	.	2ryy	4dn\	o-	mi-	2ryy	2ryy	2ryy	2r
8E\	.	.	.	.	.	.	.	.	.	.	.	.	.
8E\	.	8.a\L	.	8.cc#\L	.	.	8c#\	-ra	.	.	.	.	.
8E\J	.	.	.	.	.	.	(16d\LL	pro	-se-	.	.	.	.
.	.	(32b\LL	.	(32dd\LL	.	.	16e\JJ)	.	.	.	.	.	.
.	.	32cc#\JJJ)	.	32ee\JJJ)	.	.	.	.	.	.	.	.	.
=72	=72	=72	=72	=72	=72	=72	=72	=72	=72	=72	=72	=72	=72
.	.	8qqcc#/	.	8qqee/	.	.	8qqe/	.	.	.	.	.	.
8E\L	.	4b\	.	4dd\	.	2ryy	4d\	no-	-re-	2ryy	2ryy	2ryy	2r
8E\	.	.	.	.	.	.	.	.	.	.	.	.	.
.	.	.	.	.	.	.	8qqd/	.	.	.	.	.	.
8E\	.	8a\L	.	8cc#\L	.	.	4c#\	-biſ	-re	.	.	.	.
8E\J	.	8cc#\J	.	8aa\J	.	.	.	.	.	.	.	.	.
!	!	!	!	!	!	!	!LO:LB:g=original	!	!	!	!	!	!
=73	=73	=73	=73	=73	=73	=73	=73	=73	=73	=73	=73	=73	=73
8E\L	.	4b\	.	4dd\	.	2ryy	4d\	O-	mi-	2ryy	2ryy	2ryy	2r
8E\	.	.	.	.	.	.	.	.	.	.	.	.	.
8E\	.	8.a\L	.	8.cc#\L	.	.	8c#\	-ra	.	.	.	.	.
8E\J	.	.	.	.	.	.	16d\LL	pro	-se-	.	.	.	.
.	.	32b\LL	.	(32dd\LL	.	.	16e\JJ	.	.	.	.	.	.
.	.	32cc#\JJJ	.	32ee\JJJ)	.	.	.	.	.	.	.	.	.
=74	=74	=74	=74	=74	=74	=74	=74	=74	=74	=74	=74	=74	=74
!	!	!	!	!	!	!	!	!	!	!	!	!	!
.	.	8qqcc#/	.	8qqee/	.	.	8qqe/	.	.	.	.	.	.
8E\L	.	4b\	.	4dd\	.	2ryy	4d\	no-	-re-	2ryy	2ryy	2ryy	2r
8E\	.	.	.	.	.	.	.	.	.	.	.	.	.
.	.	8qqb/	.	.	.	.	.	.	.	.	.	.	.
8A\	.	4a\	.	4cc#\	.	.	4c#\	-biſ	-re	.	.	.	.
8AA/J	.	.	.	.	.	.	.	.	.	.	.	.	.
!	!	!LO:LB:g=original	!	!	!	!	!	!	!	!	!	!	!
=75	=75	=75	=75	=75	=75	=75	=75	=75	=75	=75	=75	=75	=75
8D\L	.	8a/L	.	4ff#\	.	2ryy	4f#\	pro	.	2ryy	2ryy	2ryy	2r
8D\	.	8a/J	.	.	.	.	.	.	.	.	.	.	.
8E\	.	(16f#/LL	.	(16dd\LL	.	.	(16d\LL	no-	no-	.	.	.	.
.	.	16d/)	.	16b\)	.	.	16B\)	.	.	.	.	.	.
8E\J	.	(16c#/	.	(16a\	.	.	(16A\	.	.	.	.	.	.
.	.	16B/JJ)	.	16g#X\JJ)	.	.	16G#X\JJ)	.	.	.	.	.	.
=76	=76	=76	=76	=76	=76	=76	=76	=76	=76	=76	=76	=76	=76
!LO:TX:t=P:problem=mixed beam	!	!	!	!LO:SIC:s=8qg#	!	!	!LO:SIC:s=8qG#	!	!	!	!	!	!
.	.	8qqB/	.	8qqg/	.	.	8qqG/	.	.	.	.	.	.
8AA/L	.	4c#/	.	4a/	.	2ryy	4A\	-biſ	-biſ	2ryy	2ryy	2ryy	2r
16A\L	.	.	.	.	.	.	.	.	.	.	.	.	.
16Gn\JJ	.	.	.	.	.	.	.	.	.	.	.	.	.
!	!	!LO:TX:t=P:problem=wartość pominięta	!	!	!	!	!	!	!	!	!	!	!
8F#\L	.	4ryy	.	4r	.	.	4r	.	.	.	.	.	.
8E\J	.	.	.	.	.	.	.	.	.	.	.	.	.
=77	=77	=77	=77	=77	=77	=77	=77	=77	=77	=77	=77	=77	=77
8D\L	.	8r	.	4aa\	.	2ryy	4a\	Vir-	Je-	2ryy	2ryy	2ryy	2r
8F#\	.	8dd\L	.	.	.	.	.	.	.	.	.	.	.
8G\	.	8dd\	.	(16ggn\LL	.	.	16gn\LL	.	-su	.	.	.	.
.	.	.	.	16ff#\)	.	.	16f#\JJ	.	.	.	.	.	.
8B 8G\J	.	8b\J	.	(16ee\	.	.	16e\LL	-go	de-	.	.	.	.
.	.	.	.	16dd\JJ)	.	.	16d\JJ	.	.	.	.	.	.
!LO:LB:g=original	!	!	!	!	!	!	!	!	!	!	!	!	!
=78	=78	=78	=78	=78	=78	=78	=78	=78	=78	=78	=78	=78	=78
.	.	8qqf#/	.	8qqdd/	.	.	8qqd/	.	.	.	.	.	.
8A\L	.	4e/	.	4cc#\	.	2ryy	4c#\	po-	-cus	2ryy	2ryy	2ryy	2r
8G\	.	.	.	.	.	.	.	.	.	.	.	.	.
.	.	8qqe/	.	8qqcc#/	.	.	8qqc#/	.	.	.	.	.	.
8F#\	.	4f#/	.	4dd\	.	.	4d\	-tens	mo-	.	.	.	.
8D\J	.	.	.	.	.	.	.	.	.	.	.	.	.
=79	=79	=79	=79	=79	=79	=79	=79	=79	=79	=79	=79	=79	=79
8r	.	4g/	.	8.b\L	.	2ryy	(8.B\L	O-	-rum	2ryy	2ryy	2ryy	2r
!	!	!	!	!	!	!	!	!	!	!	!	!	!
8D\L	.	.	.	.	.	.	.	.	.	.	.	.	.
.	.	.	.	(32cc#\LL	.	.	32c#\LL	.	mi-	.	.	.	.
.	.	.	.	32dd\JJJ)	.	.	32d\JJJ)	.	.	.	.	.	.
8A\	.	8f#/L	.	8a/L	.	.	8A/	-ra	-se-	.	.	.	.
8AA/J	.	8e/J	.	8g/J	.	.	8G/	pro	-rere	.	.	.	.
!	!	!	!	!	!	!	!LO:LB:g=original	!	!	!	!	!	!
=80	=80	=80	=80	=80	=80	=80	=80	=80	=80	=80	=80	=80	=80
8AA/L	.	8e/L	.	8g/L	.	2ryy	8G/	no-	no-	2ryy	2ryy	2ryy	2r
8D/J	.	8d/J	.	8f#/J	.	.	8F#/	-biſ	-biſ	.	.	.	.
8F#\L	.	4r	.	4r	.	.	4r	.	.	.	.	.	.
8E\J	.	.	.	.	.	.	.	.	.	.	.	.	.
=81	=81	=81	=81	=81	=81	=81	=81	=81	=81	=81	=81	=81	=81
8D\L	.	8f#/L	.	4r	.	2ryy	4.d\	Vir-	Je-	2ryy	2ryy	2ryy	2r
8D\	.	8f#/	.	.	.	.	.	.	.	.	.	.	.
8E\	.	8g/	.	[4aa\	.	.	.	.	.	.	.	.	.
8F#\J	.	8a/J	.	.	.	.	8cn\	-go	-su	.	.	.	.
!	!	!	!	!LO:LB:g=original	!	!	!	!	!	!	!	!	!
=82	=82	=82	=82	=82	=82	=82	=82	=82	=82	=82	=82	=82	=82
!	!	!	!	!	!	!	!LO:SIC:s=4cn	!	!	!	!	!	!
4G\	.	4d/	.	4aa\]	.	2ryy	4c#\	Cle-	ze-	2ryy	2ryy	2ryy	2r
!	!	!	!	!	!	!	!LO:SIC:s=8qcn	!	!	!	!	!	!
.	.	.	.	.	.	.	8qqc#/	.	.	.	.	.	.
4GG/	.	4d/	.	4gg\	.	.	4B\	-mens	-la-	.	.	.	.
=83	=83	=83	=83	=83	=83	=83	=83	=83	=83	=83	=83	=83	=83
8E\L	.	8g#X/L	.	4r	.	2ryy	4e\	Vir-	-tor	2ryy	2ryy	2ryy	2r
8E\	.	8g#/	.	.	.	.	.	.	.	.	.	.	.
8F#\	.	8a/	.	[4bb\	.	.	8e\	-go	a-	.	.	.	.
8G#X\J	.	8b/J	.	.	.	.	8d\	fi-	-ni-	.	.	.	.
=84	=84	=84	=84	=84	=84	=84	=84	=84	=84	=84	=84	=84	=84
!	!	!	!	!	!	!	!	!	!	!	!	!	!
8A\L	.	8e/L	.	8bb\L]	.	2ryy	8d\	-de-	-ma-	2ryy	2ryy	2ryy	2r
8AA/	.	8e/J	.	8aa\J	.	.	8c#X\	-lis	-rum	.	.	.	.
8AA/J	.	8r	.	8r	.	.	8r	.	.	.	.	.	.
8r	.	8c#/	.	8e/	.	.	8c#\	O-	mi-	.	.	.	.
=85	=85	=85	=85	=85	=85	=85	=85	=85	=85	=85	=85	=85	=85
8D\L	.	(16d/LL	.	(16f#/LL	.	2ryy	8d\	.	.	2ryy	2ryy	2ryy	2r
.	.	16e/JJ)	.	16g/JJ)	.	.	.	.	.	.	.	.	.
8D\	.	4f#/	.	4a/	.	.	4A\	-ra	-se-	.	.	.	.
8D\	.	.	.	.	.	.	.	.	.	.	.	.	.
8D\J	.	(16e/LL	.	(16g/LL	.	.	16G/LL	pro	-re-	.	.	.	.
.	.	16d/JJ)	.	16f#/JJ)	.	.	16F#/JJ	.	.	.	.	.	.
=86	=86	=86	=86	=86	=86	=86	=86	=86	=86	=86	=86	=86	=86
!	!	!	!	!	!	!	!	!	!	!	!	!	!
8A\L	.	(16c#/LL	.	(16e/LL	.	2ryy	16E/LL	no-	.	2ryy	2ryy	2ryy	2r
.	.	16d/JJ)	.	16f#/JJ)	.	.	16F#/JJ	.	.	.	.	.	.
8AA/	.	4e/	.	4g/	.	.	4G/	-biſ	-re	.	.	.	.
8AA/	.	.	.	.	.	.	.	.	.	.	.	.	.
8AA/J	.	(16d/LL	.	(16f#/LL	.	.	8c#\	O-	.	.	.	.	.
.	.	16c#/JJ)	.	16e/JJ)	.	.	.	.	.	.	.	.	.
=87	=87	=87	=87	=87	=87	=87	=87	=87	=87	=87	=87	=87	=87
8D\L	.	(16d/LL	.	(16f#/LL	.	2ryy	8d\	.	no-	2ryy	2ryy	2ryy	2r
.	.	16e/JJ)	.	16g/JJ)	.	.	.	.	.	.	.	.	.
8D\	.	4f#/	.	4a/	.	.	4A\	-ra	.	.	.	.	.
8D\	.	.	.	.	.	.	.	.	.	.	.	.	.
8D\J	.	(16e/LL	.	(16g/LL	.	.	16G/LL	pro	-biſ	.	.	.	.
.	.	16d/JJ)	.	16f#/JJ)	.	.	16F#/JJ	.	.	.	.	.	.
=88	=88	=88	=88	=88	=88	=88	=88	=88	=88	=88	=88	=88	=88
!	!	!	!	!	!	!	!	!	!	!	!	!	!
8A\L	.	(16c#/LL	.	(16e/LL	.	2ryy	16E/LL	no-	mi-	2ryy	2ryy	2ryy	2r
.	.	16d/JJ)	.	16f#/JJ)	.	.	16F#/JJ	.	.	.	.	.	.
8AA/	.	4e/	.	4g/	.	.	4G/	-biſ	.	.	.	.	.
8AA/	.	.	.	.	.	.	.	.	.	.	.	.	.
8AA/J	.	8c#/	.	8e/	.	.	8c#\	O-	.	.	.	.	.
=89	=89	=89	=89	=89	=89	=89	=89	=89	=89	=89	=89	=89	=89
4D\	.	24d/LL	.	24f#/LL	.	2ryy	4d\	.	-se-	2ryy	2ryy	2ryy	2r
.	.	24e/	.	24g/	.	.	.	.	.	.	.	.	.
.	.	24f#/JJ	.	24a/JJ	.	.	.	.	.	.	.	.	.
.	.	24g/LL	.	24b\LL	.	.	.	.	.	.	.	.	.
.	.	24e/	.	24cc#\	.	.	.	.	.	.	.	.	.
.	.	24f#/JJ	.	24dd\JJ	.	.	.	.	.	.	.	.	.
8C#\L	.	8ee\L	.	8gg\L	.	.	8g\	-ra	.	.	.	.	.
8D\J	.	8dd\J	.	8ff#\J	.	.	8f#\	pro	-re-	.	.	.	.
=90	=90	=90	=90	=90	=90	=90	=90	=90	=90	=90	=90	=90	=90
8A\L	.	8ddT\L	.	8ff#\L	.	2ryy	8f#\	no-	-re	2ryy	2ryy	2ryy	2r
16A\L	.	8cc#\J	.	8ee\J	.	.	8e\	-biſ	.	.	.	.	.
16G\JJ	.	.	.	.	.	.	.	.	.	.	.	.	.
8F#\L	.	8r	.	8r	.	.	8r	.	.	.	.	.	.
8F#\J	.	8d/	.	8a\	.	.	8A\	O-	mi-	.	.	.	.
=91	=91	=91	=91	=91	=91	=91	=91	=91	=91	=91	=91	=91	=91
8G\L	.	8d/L	.	8.b\L	.	2ryy	8B\	-ra	.	2ryy	2ryy	2ryy	2r
8E\	.	8b/J	.	.	.	.	8g\	pro	.	.	.	.	.
.	.	.	.	16gg\Jk	.	.	.	.	.	.	.	.	.
!	!	!	!	!	!	!	!LO:LB:g=original	!	!	!	!	!	!
.	.	8qqf#/	.	8qqdd/	.	.	8qqd/	.	.	.	.	.	.
8A\	.	4e/	.	4cc#\	.	.	4c#\	no-	-se-	.	.	.	.
8G\J	.	.	.	.	.	.	.	.	.	.	.	.	.
!LO:LB:g=original	!	!	!	!	!	!	!	!	!	!	!	!	!
=92	=92	=92	=92	=92	=92	=92	=92	=92	=92	=92	=92	=92	=92
8F#\L	.	8f#/	.	8dd\L	.	2ryy	8d\	-biſ	-re-	2ryy	2ryy	2ryy	2r
8G\	.	4dd\	.	8bb\J	.	.	8B\	o-	.	.	.	.	.
8F#\	.	.	.	16aa\LL	.	.	16A\LL	-ra	-re	.	.	.	.
.	.	.	.	16gg\	.	.	16g\JJ	.	.	.	.	.	.
8G\J	.	8b\	.	16ff#\	.	.	16f#\LL	pro	.	.	.	.	.
.	.	.	.	16ee\JJ	.	.	16e\JJ	.	.	.	.	.	.
!	!	!	!	!LO:LB:g=original	!	!	!	!	!	!	!	!	!
=93	=93	=93	=93	=93	=93	=93	=93	=93	=93	=93	=93	=93	=93
!	!	!	!	!	!	!	!	!	!	!	!	!	!
8A\L	.	4f#/	.	4dd\	.	2ryy	4d\	no-	no-	2ryy	2ryy	2ryy	2r
8G\	.	.	.	.	.	.	.	.	.	.	.	.	.
8A\	.	4gT/	.	4eeT\	.	.	4e\	.	.	.	.	.	.
8AA/J	.	.	.	.	.	.	.	.	.	.	.	.	.
=94	=94	=94	=94	=94	=94	=94	=94	=94	=94	=94	=94	=94	=94
.	.	8qqg/	.	8qqee/	.	.	.	.	.	.	.	.	.
8D\L	.	8f#/L	.	4dd\	.	2ryy	4d\	-biſ	-biſ	2ryy	2ryy	2ryy	2r
16D\L	.	16f#/L	.	.	.	.	.	.	.	.	.	.	.
16E\JJ	.	16g/JJ	.	.	.	.	.	.	.	.	.	.	.
8F#\L	.	8a/L	.	8r	.	.	8r	.	.	.	.	.	.
8F#\J	.	8d/J	.	8a\	.	.	8A\	O-	mi-	.	.	.	.
=95	=95	=95	=95	=95	=95	=95	=95	=95	=95	=95	=95	=95	=95
8G\L	.	8d/L	.	8.b\L	.	2ryy	8B\	-ra	.	2ryy	2ryy	2ryy	2r
8E\	.	8b/J	.	.	.	.	8g\	pro	-se-	.	.	.	.
.	.	.	.	16gg\Jk	.	.	.	.	.	.	.	.	.
.	.	8qqf#/	.	8qqdd/	.	.	8qqd/	.	.	.	.	.	.
8A\	.	4e/	.	4cc#\	.	.	4c#\	no-	-re-	.	.	.	.
8G\J	.	.	.	.	.	.	.	.	.	.	.	.	.
=96	=96	=96	=96	=96	=96	=96	=96	=96	=96	=96	=96	=96	=96
8F#\L	.	8f#/	.	8dd\L	.	2ryy	8d\	-biſ	-re	2ryy	2ryy	2ryy	2r
8G\	.	4dd\	.	8bb\J	.	.	8B\	o-	.	.	.	.	.
8F#\	.	.	.	16aa\LL	.	.	16A\LL	-ra	mi-	.	.	.	.
.	.	.	.	16gg\	.	.	16g\JJ	.	.	.	.	.	.
8G\J	.	8b\	.	16ff#\	.	.	16f#\LL	pro	-se-	.	.	.	.
.	.	.	.	16ee\JJ	.	.	16e\JJ	.	.	.	.	.	.
=97	=97	=97	=97	=97	=97	=97	=97	=97	=97	=97	=97	=97	=97
!	!	!	!	!	!	!	!	!	!	!	!	!	!
8A\L	.	4f#/	.	4dd\	.	2ryy	4d\	no-	-rere	2ryy	2ryy	2ryy	2r
8G\	.	.	.	.	.	.	.	.	.	.	.	.	.
8A\	.	4gT/	.	4eeT\	.	.	4e\	.	no-	.	.	.	.
8AA/J	.	.	.	.	.	.	.	.	.	.	.	.	.
=98	=98	=98	=98	=98	=98	=98	=98	=98	=98	=98	=98	=98	=98
!	!	!	!	!	!LO:DY:a:t=for	!	!	!	!	!	!	!	!
4D\	.	4f#/	.	16dd\LL	f	2ryy	4d\	-biſ	-biſ	2ryy	2ryy	2ryy	2r
.	.	.	.	16ddd\	.	.	.	.	.	.	.	.	.
.	.	.	.	(16aa\	.	.	.	.	.	.	.	.	.
.	.	.	.	16cccn\JJ)	.	.	.	.	.	.	.	.	.
8r	.	8r	.	(16bb\LL	.	.	8r	.	.	.	.	.	.
.	.	.	.	16ee\)	.	.	.	.	.	.	.	.	.
!	!	!	!	!	!LO:DY:a:t=pia.	!	!	!	!	!	!	!	!
8G\	.	(16b/LL	.	(16gg\	p	.	16g\LL	pro	no-	.	.	.	.
.	.	16g/JJ)	.	16ee\JJ)	.	.	16e\JJ	.	.	.	.	.	.
=99	=99	=99	=99	=99	=99	=99	=99	=99	=99	=99	=99	=99	=99
!	!	!	!	!	!	!	!	!	!	!	!	!	!LO:TX:a:t=Da Capo ad Signum
4A;\	.	4f#;/	.	4dd;\	.	2ryy	4d\	no-	.	2ryy	2ryy	2ryy	2r;;
!LO:TX:a:t=Da capo ad Signum	!	!LO:TX:a:t=Da Capo\nad Signum	!	!LO:TX:a:t=Da Capo ad Signum	!	!	!	!	!	!	!	!	!
4AA/	.	4cc#t\	.	4ee\	.	.	4e\	.	.	.	.	.	.
=100	=100	=100	=100	=100	=100	=100	=100	=100	=100	=100	=100	=100	=100
2ryy	.	2ryy	.	2ryy	.	2ryy	4d\	-biſ	-biſ	2ryy	2ryy	2ryy	2ryy
.	.	.	.	.	.	.	4r	.	.	.	.	.	.
=101	=101	=101	=101	=101	=101	=101	=101	=101	=101	=101	=101	=101	=101
2ryy	.	2ryy	.	2ryy	.	2ryy	2r	.	.	2ryy	2ryy	2ryy	2ryy
=102	=102	=102	=102	=102	=102	=102	=102	=102	=102	=102	=102	=102	=102
2ryy	.	2ryy	.	2ryy	.	2ryy	2r	.	.	2ryy	2ryy	2ryy	2ryy
=103	=103	=103	=103	=103	=103	=103	=103	=103	=103	=103	=103	=103	=103
2ryy	.	2ryy	.	2ryy	.	2ryy	2r	.	.	2ryy	2ryy	2ryy	2ryy
=104	=104	=104	=104	=104	=104	=104	=104	=104	=104	=104	=104	=104	=104
2ryy	.	2ryy	.	2ryy	.	2ryy	2r	.	.	2ryy	2ryy	2ryy	2ryy
=105	=105	=105	=105	=105	=105	=105	=105	=105	=105	=105	=105	=105	=105
2ryy	.	2ryy	.	2ryy	.	2ryy	2r	.	.	2ryy	2ryy	2ryy	2ryy
=106	=106	=106	=106	=106	=106	=106	=106	=106	=106	=106	=106	=106	=106
2ryy	.	2ryy	.	2ryy	.	2ryy	2r	.	.	2ryy	2ryy	2ryy	2ryy
=107	=107	=107	=107	=107	=107	=107	=107	=107	=107	=107	=107	=107	=107
2ryy	.	2ryy	.	2ryy	.	2ryy	2r	.	.	2ryy	2ryy	2ryy	2ryy
=108	=108	=108	=108	=108	=108	=108	=108	=108	=108	=108	=108	=108	=108
2ryy	.	2ryy	.	2ryy	.	2ryy	2r	.	.	2ryy	2ryy	2ryy	2ryy
=109	=109	=109	=109	=109	=109	=109	=109	=109	=109	=109	=109	=109	=109
2ryy	.	2ryy	.	2ryy	.	2ryy	2r	.	.	2ryy	2ryy	2ryy	2ryy
=110	=110	=110	=110	=110	=110	=110	=110	=110	=110	=110	=110	=110	=110
2ryy	.	2ryy	.	2ryy	.	2ryy	2r	.	.	2ryy	2ryy	2ryy	2ryy
=111	=111	=111	=111	=111	=111	=111	=111	=111	=111	=111	=111	=111	=111
2ryy	.	2ryy	.	2ryy	.	2ryy	2r	.	.	2ryy	2ryy	2ryy	2ryy
=112	=112	=112	=112	=112	=112	=112	=112	=112	=112	=112	=112	=112	=112
2ryy	.	2ryy	.	2ryy	.	2ryy	2r	.	.	2ryy	2ryy	2ryy	2ryy
=113	=113	=113	=113	=113	=113	=113	=113	=113	=113	=113	=113	=113	=113
2ryy	.	2ryy	.	2ryy	.	2ryy	2r	.	.	2ryy	2ryy	2ryy	2ryy
=114	=114	=114	=114	=114	=114	=114	=114	=114	=114	=114	=114	=114	=114
2ryy	.	2ryy	.	2ryy	.	2ryy	2r	.	.	2ryy	2ryy	2ryy	2ryy
=115	=115	=115	=115	=115	=115	=115	=115	=115	=115	=115	=115	=115	=115
2ryy	.	2ryy	.	2ryy	.	2ryy	2r	.	.	2ryy	2ryy	2ryy	2ryy
=116	=116	=116	=116	=116	=116	=116	=116	=116	=116	=116	=116	=116	=116
2ryy	.	2ryy	.	2ryy	.	2ryy	2r	.	.	2ryy	2ryy	2ryy	2ryy
=117	=117	=117	=117	=117	=117	=117	=117	=117	=117	=117	=117	=117	=117
2ryy	.	2ryy	.	2ryy	.	2ryy	2r	.	.	2ryy	2ryy	2ryy	2ryy
=118	=118	=118	=118	=118	=118	=118	=118	=118	=118	=118	=118	=118	=118
2ryy	.	2ryy	.	2ryy	.	2ryy	2r	.	.	2ryy	2ryy	2ryy	2ryy
=119	=119	=119	=119	=119	=119	=119	=119	=119	=119	=119	=119	=119	=119
2ryy	.	2ryy	.	2ryy	.	2ryy	2r	.	.	2ryy	2ryy	2ryy	2ryy
=120	=120	=120	=120	=120	=120	=120	=120	=120	=120	=120	=120	=120	=120
2ryy	.	2ryy	.	2ryy	.	2ryy	2r	.	.	2ryy	2ryy	2ryy	2ryy
=121	=121	=121	=121	=121	=121	=121	=121	=121	=121	=121	=121	=121	=121
2ryy	.	2ryy	.	2ryy	.	2ryy	2r	.	.	2ryy	2ryy	2ryy	2ryy
=122	=122	=122	=122	=122	=122	=122	=122	=122	=122	=122	=122	=122	=122
2ryy	.	2ryy	.	2ryy	.	2ryy	2r	.	.	2ryy	2ryy	2ryy	2ryy
=123	=123	=123	=123	=123	=123	=123	=123	=123	=123	=123	=123	=123	=123
2ryy	.	2ryy	.	2ryy	.	2ryy	2r	.	.	2ryy	2ryy	2ryy	2ryy
=124	=124	=124	=124	=124	=124	=124	=124	=124	=124	=124	=124	=124	=124
2ryy	.	2ryy	.	2ryy	.	2ryy	2r	.	.	2ryy	2ryy	2ryy	2ryy
=125	=125	=125	=125	=125	=125	=125	=125	=125	=125	=125	=125	=125	=125
2ryy	.	2ryy	.	2ryy	.	2ryy	2r	.	.	2ryy	2ryy	2ryy	2ryy
=126	=126	=126	=126	=126	=126	=126	=126	=126	=126	=126	=126	=126	=126
2ryy	.	2ryy	.	2ryy	.	2ryy	2r	.	.	2ryy	2ryy	2ryy	2ryy
=127	=127	=127	=127	=127	=127	=127	=127	=127	=127	=127	=127	=127	=127
2ryy	.	2ryy	.	2ryy	.	2ryy	2r	.	.	2ryy	2ryy	2ryy	2ryy
=128	=128	=128	=128	=128	=128	=128	=128	=128	=128	=128	=128	=128	=128
2ryy	.	2ryy	.	2ryy	.	2ryy	2r	.	.	2ryy	2ryy	2ryy	2ryy
=129	=129	=129	=129	=129	=129	=129	=129	=129	=129	=129	=129	=129	=129
2ryy	.	2ryy	.	2ryy	.	2ryy	2r	.	.	2ryy	2ryy	2ryy	2ryy
==	==	==	==	==	==	==	==	==	==	==	==	==	==
*-	*-	*-	*-	*-	*-	*-	*-	*-	*-	*-	*-	*-	*-
!!!system-decoration: s1[(s2,s3)][(s4,s5,s6)][(s7,s8)]s9
!!!ENC: Krzysztof Stępień
!!!END: 2020-12-01
!!!ENC: Jan Barakat
!!!END: 2022-03-06
